packages/ui-icons/src/Service-logos/24/Tamtam.svg

<?xml version="1.0" encoding="UTF-8"?>
<svg viewBox="0 0 32 32" version="1.1" xmlns="http://www.w3.org/2000/svg" xmlns:xlink="http://www.w3.org/1999/xlink">
    <!-- Generator: Sketch 49 (51002) - http://www.bohemiancoding.com/sketch -->
    <title>logo/24/tamtam</title>
    <desc>Created with Sketch.</desc>
    <defs></defs>
    <g id="logo/24/tamtam" stroke="none" stroke-width="1" fill="none" fill-rule="evenodd">
        <circle id="Oval-2-Copy" fill="#697CFF" cx="16" cy="16" r="12"></circle>
        <path d="M12.129629,21.5598061 C10.2432656,20.3325204 9,18.2336854 9,15.8506649 C9,12.0671472 12.1340068,9 16,9 C19.8659932,9 23,12.0671472 23,15.8506649 C23,19.6341827 19.8659932,22.7013299 16,22.7013299 C15.5105072,22.7013299 15.0327492,22.6521593 14.5716015,22.5585899 L12.4793829,23.9600649 C12.3730406,24.0312985 12.227828,24.0046763 12.1550416,23.9006026 C12.1281684,23.8621778 12.1139399,23.8166315 12.1142636,23.7700692 L12.129629,21.5598061 Z M12.5,16 C12.5,17.8917589 14.0670034,19.4253325 16,19.4253325 C17.9329966,19.4253325 19.5,17.8917589 19.5,16 L12.5,16 Z" id="Combined-Shape" fill="#FFFFFF"></path>
    </g>
</svg>

<svg viewBox="0 0 32 32" xmlns="http://www.w3.org/2000/svg"><g fill="none" fill-rule="evenodd"><circle fill="#697CFF" cx="16" cy="16" r="12"/><path d="M12.13 21.56C10.243 20.333 9 18.234 9 15.85 9 12.068 12.134 9 16 9s7 3.067 7 6.85c0 3.784-3.134 6.851-7 6.851-.49 0-.967-.049-1.428-.142l-2.093 1.401a.237.237 0 0 1-.324-.06.225.225 0 0 1-.04-.13l.015-2.21ZM12.5 16c0 1.892 1.567 3.425 3.5 3.425s3.5-1.533 3.5-3.425h-7Z" fill="#FFF"/></g></svg>
